X:91
T: Der heimkehrende Soldat
N: Q0103H
O: Mitteleuropa, Deutschland (BRD) , Rheinland
N: Laengere Fassung (Text eingeklammert) kodiert.
N: Anhaengsel; letzte Zeile = Refrain.
R: Ballade, Ehe, Betrug
M: 6/8
L: 1/16
K: G
DD | G4G2G2B2B2 | B4A2A4c2 | B6z6
d4d2d2c2B2 | c4c2c4
d2 | B2B2B2B2G2G2 | B2A2A2A4
c2 | B4B2A4A2 | G6-G2z2

